brandFactory_export/3.Masa/Bateria completa_llena_3Masa.svg

<?xml version="1.0" encoding="UTF-8"?>
<svg width="24px" height="24px" viewBox="0 0 24 24" version="1.1" xmlns="http://www.w3.org/2000/svg" xmlns:xlink="http://www.w3.org/1999/xlink">
    <title>3.Masa/Bateria completa_llena_3Masa</title>
    <g id="Symbols" stroke="none" stroke-width="1" fill="none" fill-rule="evenodd">
        <g id="3.Masa/Bateria-completa_llena_3Masa" fill="#5CB615" fill-rule="nonzero">
            <path d="M18.2605042,19.6067227 L18.2605042,6.57478992 C18.2605042,5.68403361 18.0621849,5.05546218 17.6521008,4.65210084 C17.2420168,4.24537815 16.6033613,4.05042017 15.6957983,4.05042017 L9.08739496,4.05042017 C8.19327731,4.05042017 7.55462185,4.25210084 7.13781513,4.66890756 C6.72436975,5.0789916 6.52268908,5.70420168 6.52268908,6.57815126 L6.52268908,19.610084 C6.52268908,20.5109244 6.7210084,21.1428571 7.13445378,21.5428571 C7.54117647,21.9428571 8.17983193,22.1344538 9.08739496,22.1344538 L15.6991597,22.1344538 C16.6033613,22.1344538 17.2453782,21.9394958 17.6521008,21.5428571 C18.0621849,21.1394958 18.2605042,20.507563 18.2605042,19.6067227 Z M10.6705882,1.59663866 C10.5831933,1.68403361 10.5630252,1.87563025 10.5630252,2.02352941 L10.5630252,2.55462185 L14.2201681,2.55462185 L14.2201681,2.02016807 C14.2201681,1.89579832 14.2067227,1.67731092 14.1193277,1.58991597 C14.0319328,1.50252101 13.8067227,1.48907563 13.6823529,1.48907563 L11.1042017,1.48907563 C10.9529412,1.49243697 10.7579832,1.5092437 10.6705882,1.59663866 L10.6705882,1.59663866 Z M18.7243697,3.59663866 C19.4302521,4.29579832 19.7731092,5.26722689 19.7731092,6.57478992 L19.7731092,19.6067227 C19.7731092,20.9243697 19.4268908,21.902521 18.7142857,22.5983193 C18.0084034,23.2907563 17.0201681,23.6235294 15.6957983,23.6235294 L9.08739496,23.6235294 C7.76302521,23.6235294 6.77478992,23.287395 6.06890756,22.5983193 C5.35630252,21.902521 5.01008403,20.9243697 5.01008403,19.6033613 L5.01008403,6.57478992 C5.01008403,5.2907563 5.35294118,4.32268908 6.05882353,3.61680672 C6.76806723,2.91092437 7.74957983,2.56470588 9.05042017,2.55798319 L9.05042017,2.02016807 C9.05042017,1.40168067 9.23193277,0.904201681 9.59495798,0.54789916 C9.95798319,0.18487395 10.4655462,0 11.1008403,0 L13.6789916,0 C14.3176471,0 14.8252101,0.181512605 15.1882353,0.541176471 C15.5478992,0.897478992 15.7294118,1.39831933 15.7294118,2.02352941 L15.7294118,2.56134454 C17.0436975,2.56470588 18.0252101,2.90420168 18.7243697,3.59663866 Z M16.6067227,5.23361345 C17.0235294,5.23361345 17.3630252,5.5697479 17.3630252,5.97983193 L17.3630252,18.8571429 C17.3630252,20.3193277 16.1563025,21.5058824 14.6739496,21.5058824 L10.1092437,21.5058824 C8.62689076,21.5058824 7.42016807,20.3193277 7.42016807,18.8571429 L7.42016807,5.97983193 C7.42016807,5.5697479 7.75966387,5.23361345 8.17647059,5.23361345 L16.6067227,5.23361345 L16.6067227,5.23361345 Z" id="Bateria-completa_llena_3Masa"></path>
        </g>
    </g>
</svg>

<svg width="24" height="24" viewBox="0 0 24 24" xmlns="http://www.w3.org/2000/svg"><path d="M18.26 19.607V6.575c0-.891-.198-1.52-.608-1.923-.41-.407-1.049-.602-1.956-.602H9.087c-.894 0-1.532.202-1.95.619-.413.41-.614 1.035-.614 1.91V19.61c0 .9.198 1.533.611 1.933.407.4 1.046.591 1.953.591H15.7c.904 0 1.546-.195 1.953-.591.41-.404.609-1.035.609-1.936zm-7.59-18.01c-.087.087-.107.279-.107.427v.53h3.657V2.02c0-.124-.013-.343-.1-.43-.088-.087-.313-.1-.438-.1h-2.578c-.151.002-.346.02-.433.107zm8.054 2c.706.699 1.05 1.67 1.05 2.978v13.032c0 1.317-.347 2.296-1.06 2.991-.706.693-1.694 1.026-3.018 1.026H9.087c-1.324 0-2.312-.337-3.018-1.026-.713-.695-1.059-1.674-1.059-2.995V6.575c0-1.284.343-2.252 1.049-2.958.71-.706 1.69-1.052 2.991-1.059V2.02c0-.618.182-1.116.545-1.472.363-.363.87-.548 1.506-.548h2.578c.639 0 1.146.182 1.51.541.359.356.54.857.54 1.483v.537c1.315.004 2.296.343 2.995 1.036zm-2.117 1.637c.417 0 .756.336.756.746v12.877c0 1.462-1.207 2.649-2.69 2.649H10.11c-1.482 0-2.689-1.187-2.689-2.649V5.98c0-.41.34-.746.756-.746h8.43z" fill="#5CB615" fill-rule="nonzero"/></svg>
